svgs/1F920.svg

<svg xmlns="http://www.w3.org/2000/svg" xmlns:xlink="http://www.w3.org/1999/xlink" preserveAspectRatio="none" viewBox="0 0 72 72"><defs><filter id="m" width="140%" height="140%" x="-20%" y="-20%" color-interpolation-filters="sRGB"><feColorMatrix in="SourceGraphic" result="result1" values="1 0 0 0 0 0 1 0 0 0 0 0 1 0 0 0 0 0 0.5 0"/></filter><path id="a" fill="#A1887F" d="M125.1 49.15q1-6.9-1.25-12.1-4.45-10.2-18.05-5.65-3.55 1.15-10.25 5.5-7.15 4.6-12.85 6.75-6.85 2.55-13.45 3.5l-5.25.4V80.3q12.05-.5 27.35-3.4 7.65-1.5 12.9-2.85 6.5-2.9 12.1-7.95 5.05-4.55 6.3-7.85 1.9-5.2 2.45-9.1z"/><path id="b" fill="#A1887F" d="M58.75 47.15q-6.6-.95-13.5-3.5-5.75-2.2-12.9-6.75-6.8-4.35-10.3-5.55-6.3-2.05-10.45-1.05-5.05 1.15-7.5 6.75-2.25 5.2-1.25 12.1.55 3.9 2.45 9.1 1.25 3.3 6.3 7.85 5.6 5.05 12.1 7.95l12.9 2.8q15.3 2.9 27.35 3.4v-32.7q-1.942.044-5.2-.4z"/><path id="c" fill="#8D6E63" d="M15.9 34.85q-1.9 2-.85 5.4 1.2 4 6.35 8.25l9.45-12.3q-2.8-1.3-6.05-2.15-6.55-1.65-8.9.8z"/><path id="d" fill="#8D6E63" d="M106.75 48.5q5.1-4.25 6.35-8.25 1.05-3.4-.85-5.4-2.35-2.45-8.9-.8L97.3 36.2l9.45 12.3z"/><path id="e" fill="#FCC21B" d="M35.8 4.85q-22.3 0-31 20.65Q0 36.75 0 52q0 5.85 10.5 9.95 10.55 4.15 25.3 4.15 14.9 0 25.45-4.15 10.5-4.1 10.5-9.95 0-15.3-4.85-26.5Q58.2 4.85 35.8 4.85z"/><path id="f" fill="#ED6C30" d="M51.3 48q2.65-2.65 3.65-6 .9-3.35-.7-4.45-1.05-.7-2.85-.55l-3 .55q-5.7 1.2-12.4 1.2-6.75 0-12.4-1.2l-3-.55q-1.85-.15-2.9.55-1.6 1.1-.7 4.45 1 3.35 3.6 6 2.3 2.45 5.4 4 4.45 2.45 10 2.45 5.45 0 10-2.45 2.9-1.45 5.3-4z"/><path id="g" fill="#2F2F2F" d="M28.25 29q-.1-2.3-1.4-3.85-1.4-1.6-3.25-1.55-1.9 0-3.25 1.6-1.3 1.7-1.3 3.9.1 2.3 1.4 3.85 1.35 1.55 3.25 1.55t3.2-1.6q1.35-1.65 1.35-3.9z"/><path id="h" fill="#2F2F2F" d="M43.95 29.05q0 2.3 1.3 3.9 1.4 1.55 3.25 1.55 1.9 0 3.25-1.55 1.3-1.6 1.3-3.9 0-2.2-1.3-3.9-1.35-1.55-3.25-1.5-1.85 0-3.25 1.6-1.3 1.5-1.3 3.8z"/><path id="i" fill="#BCAAA4" d="M55.05 3.3q-3.55 0-12.9 8.1-8.5 7.35-9.85 10-.85 1.6-2.4 5.45-1.6 3.95-1.85 5.15-.25 1.2-1.7 1.3-1.26.097-2.25-.55l5.95 4.2q7.2 4.65 13.4 6.85 6.2 2.2 14 3.3 3.9.5 6.55.6V6.6q-2.05 0-4.4-1.65-2.3-1.65-4.55-1.65z"/><path id="j" fill="#BCAAA4" d="M95.65 21.4q-1.45-2.65-9.85-9.95Q76.45 3.3 72.9 3.3q-2.25 0-4.55 1.65Q66 6.6 64 6.6v41.1l6.55-.6Q78.3 46 84.5 43.8q6.2-2.2 12.4-6.35 3.15-2.1 5-3.75-.8.55-1.1.2-.2-.25-.55-1.7-.35-1.35-1.95-5.15-1.6-3.7-2.65-5.65z"/><path id="k" fill="#BCAAA4" d="M64 26.1q-11.75.55-22.45 2.05l-8.4 1.4q-.7 4.4-3.55 5.25h-2.75q11.5 8.25 25.5 11.4Q59.3 47.8 64 47.7V26.1z"/><path id="l" fill="#BCAAA4" d="M100.9 34.95q-1.25.4-2.65-.1-2.75-1-3.45-5.3-3.1-.6-8.55-1.3Q75.45 26.8 64 26.1v21.6l3.15-.15q4.05-.3 8.4-1.25 13.8-3.1 25.35-11.35z"/><path id="n" fill="#A1887F" d="M16.25.25q-4.2 1.8-12.1 9.85-8.25 8.4-.75 6.65 7.85-1.8 13.65-6.2 5.05-3.85 4.9-6.35-.15-2.1-2.1-3.4-1.95-1.3-3.6-.55z"/><path id="o" fill="#A1887F" d="M17.75 10.1Q9.9 2.05 5.7.25 4.05-.5 2.1.8.1 2.1 0 4.2q-.15 2.5 4.9 6.35 5.75 4.4 13.6 6.2 7.5 1.75-.75-6.65z"/><path id="p" fill="#BCAAA4" d="M64 47q7.3 0 14.65-2.6 3.7-1.3 5.95-2.6-5.15 1.6-13.1 2.3-15.9 1.4-29.95-3.25l6.85 3.1Q56.7 47 64 47z"/><path id="q" fill="#A1887F" d="M94.2 35.5l3.65-3.15q-3.4-1.25-9.25-2.55-11.7-2.55-23.85-2.55-12.15 0-24.6 2.55-6.25 1.3-10.05 2.55l3.5 3.15 9.25-1.6q11.4-1.6 22.2-1.35 10.75.25 21.05 1.65 5.1.65 8.1 1.3z"/><path id="r" fill="#8D6E63" d="M67.85 31.1q2.8-.5 2.8-.85 0-.5-6.2-1.75-.8 0-3.4.6-2.9.6-2.9 1 0 .45 2.85.95 2.55.5 3.45.5.85 0 3.4-.45z"/><path id="s" fill="#8D6E63" d="M83.6 32.05q2.45-.2 2.5-.5.05-.45-5.25-2.1-.75-.05-3.05.25-2.55.35-2.6.7-.05.35 2.45 1.05 2.1.6 2.95.75.75.05 3-.15z"/><path id="t" fill="#8D6E63" d="M50.3 29.7q-2.3-.3-3.05-.25-.5.05-2.75.9-2.5.9-2.5 1.2.05.3 2.55.5 2.2.2 2.95.15.85-.15 2.95-.75 2.5-.7 2.45-1.05-.05-.35-2.6-.7z"/><path id="u" fill="#BCAAA4" d="M55.6 45.3q-5.9-.6-10.4-2.6-2.75-1.2-12.85-8.75-9.25-6.9-13.8-8.05Q12.6 24.35 7.8 27q-4.55 2.55-6.2 7.65-1.35 4.2-.9 10.7.6 8.95 5.1 15.5 1.25 1.8 1.85 2.5l.55-1.75-.3-.4Q3.85 56.15 3 48.35q-.65-6.1.6-10.1.95-2.95 3.9-4.8 4.05-2.6 10.25-1.55 5.3.9 12.65 4.65 10.3 5.3 14.4 6.9 7.3 2.85 14 3.6 3.35.4 5.2.2v-1.6q-5.3 0-8.4-.35z"/><path id="v" fill="#BCAAA4" d="M124.3 38.25q1.25 3.95.55 10.05-.9 7.7-4.8 12.95l-.3.4.5 1.75q.45-.55 1.9-2.55 4.55-6.5 5.15-15.5.45-6.4-.9-10.65-1.7-5.15-6.25-7.7-4.8-2.65-10.75-1.1-4.5 1.15-13.75 8.05-10.1 7.55-12.9 8.75-4.5 2-10.4 2.6-3.05.35-8.35.35v1.6l5.25-.25q6.75-.85 14.05-3.7 3.95-1.55 14.25-6.75 7.15-3.6 12.5-4.5 6.2-1.05 10.3 1.45 3.1 1.9 3.95 4.75z"/></defs><use transform="translate(-.05 1.8) scale(.5625)" xlink:href="#a"/><use transform="translate(0 1.85) scale(.5625)" xlink:href="#b"/><use transform="translate(0 1.85) scale(.5625)" xlink:href="#c"/><use transform="translate(0 1.85) scale(.5625)" xlink:href="#d"/><use transform="matrix(.91406 0 0 .91402 3.1 7.95)" xlink:href="#e"/><use transform="matrix(.91406 0 0 .91402 3.1 7.95)" xlink:href="#f"/><use transform="matrix(.91406 0 0 .91402 3.1 7.95)" xlink:href="#g"/><use transform="matrix(.91406 0 0 .91402 3.1 7.95)" xlink:href="#h"/><use transform="translate(0 1.85) scale(.5625)" xlink:href="#i"/><use transform="translate(0 1.85) scale(.5625)" xlink:href="#j"/><use transform="translate(0 1.85) scale(.5625)" xlink:href="#k"/><use transform="translate(0 1.85) scale(.5625)" xlink:href="#l"/><use filter="url(#m)" transform="translate(20.1 5.75) scale(.5625)" xlink:href="#n"/><use filter="url(#m)" transform="translate(39.45 5.75) scale(.5625)" xlink:href="#o"/><use transform="translate(0 1.85) scale(.5625)" xlink:href="#p"/><use transform="translate(0 1.85) scale(.5625)" xlink:href="#q"/><use transform="translate(0 1.85) scale(.5625)" xlink:href="#r"/><use transform="translate(0 1.85) scale(.5625)" xlink:href="#s"/><use transform="translate(0 1.85) scale(.5625)" xlink:href="#t"/><use transform="translate(0 1.85) scale(.5625)" xlink:href="#u"/><use transform="translate(0 1.85) scale(.5625)" xlink:href="#v"/></svg>

<svg xmlns="http://www.w3.org/2000/svg" version="1.1" xmlns:xlink="http://www.w3.org/1999/xlink" preserveAspectRatio="none" x="0px" y="0px" width="72px" height="72px" viewBox="0 0 72 72">
<defs>
<filter id="Filter_1" x="-20%" y="-20%" width="140%" height="140%" color-interpolation-filters="sRGB">
<feColorMatrix in="SourceGraphic" type="matrix" values="1 0 0 0 0 0 1 0 0 0 0 0 1 0 0 0 0 0 0.5 0" result="result1"/>
</filter>

<g id="Layer1_0_MEMBER_0_FILL">
<path fill="#A1887F" stroke="none" d="
M 125.1 49.15
Q 126.1 42.25 123.85 37.05 119.4 26.85 105.8 31.4 102.25 32.55 95.55 36.9 88.4 41.5 82.7 43.65 75.85 46.2 69.25 47.15
L 64 47.55 64 80.3
Q 76.05 79.8 91.35 76.9 99 75.4 104.25 74.05 110.75 71.15 116.35 66.1 121.4 61.55 122.65 58.25 124.55 53.05 125.1 49.15 Z"/>
</g>

<g id="Layer1_0_MEMBER_1_FILL">
<path fill="#A1887F" stroke="none" d="
M 58.75 47.15
Q 52.15 46.2 45.25 43.65 39.5 41.45 32.35 36.9 25.55 32.55 22.05 31.35 15.75 29.3 11.6 30.3 6.55 31.45 4.1 37.05 1.85 42.25 2.85 49.15 3.4 53.05 5.3 58.25 6.55 61.55 11.6 66.1 17.2 71.15 23.7 74.05
L 36.6 76.85
Q 51.9 79.75 63.95 80.25
L 63.95 47.55
Q 62.0080078125 47.5943359375 58.75 47.15 Z"/>
</g>

<g id="Layer1_0_MEMBER_2_FILL">
<path fill="#8D6E63" stroke="none" d="
M 15.9 34.85
Q 14 36.85 15.05 40.25 16.25 44.25 21.4 48.5
L 30.85 36.2
Q 28.05 34.9 24.8 34.05 18.25 32.4 15.9 34.85 Z"/>
</g>

<g id="Layer1_0_MEMBER_3_FILL">
<path fill="#8D6E63" stroke="none" d="
M 106.75 48.5
Q 111.85 44.25 113.1 40.25 114.15 36.85 112.25 34.85 109.9 32.4 103.35 34.05
L 97.3 36.2 106.75 48.5 Z"/>
</g>

<g id="Layer1_0_MEMBER_4_MEMBER_0_MEMBER_0_MEMBER_0_MEMBER_0_MEMBER_0_FILL">
<path fill="#FCC21B" stroke="none" d="
M 35.8 4.85
Q 13.5 4.85 4.8 25.5 0 36.75 0 52 0 57.85 10.5 61.95 21.05 66.1 35.8 66.1 50.7 66.1 61.25 61.95 71.75 57.85 71.75 52 71.75 36.7 66.9 25.5 58.2 4.85 35.8 4.85 Z"/>
</g>

<g id="Layer1_0_MEMBER_4_MEMBER_0_MEMBER_1_MEMBER_0_MEMBER_0_MEMBER_0_FILL">
<path fill="#ED6C30" stroke="none" d="
M 51.3 48
Q 53.95 45.35 54.95 42 55.85 38.65 54.25 37.55 53.2 36.85 51.4 37
L 48.4 37.55
Q 42.7 38.75 36 38.75 29.25 38.75 23.6 37.55
L 20.6 37
Q 18.75 36.85 17.7 37.55 16.1 38.65 17 42 18 45.35 20.6 48 22.9 50.45 26 52 30.45 54.45 36 54.45 41.45 54.45 46 52 48.9 50.55 51.3 48 Z"/>
</g>

<g id="Layer1_0_MEMBER_4_MEMBER_0_MEMBER_2_MEMBER_0_MEMBER_0_MEMBER_0_FILL">
<path fill="#2F2F2F" stroke="none" d="
M 28.25 29
Q 28.15 26.7 26.85 25.15 25.45 23.55 23.6 23.6 21.7 23.6 20.35 25.2 19.05 26.9 19.05 29.1 19.15 31.4 20.45 32.95 21.8 34.5 23.7 34.5 25.6 34.5 26.9 32.9 28.25 31.25 28.25 29 Z"/>
</g>

<g id="Layer1_0_MEMBER_4_MEMBER_0_MEMBER_3_MEMBER_0_MEMBER_0_MEMBER_0_FILL">
<path fill="#2F2F2F" stroke="none" d="
M 43.95 29.05
Q 43.95 31.35 45.25 32.95 46.65 34.5 48.5 34.5 50.4 34.5 51.75 32.95 53.05 31.35 53.05 29.05 53.05 26.85 51.75 25.15 50.4 23.6 48.5 23.65 46.65 23.65 45.25 25.25 43.95 26.75 43.95 29.05 Z"/>
</g>

<g id="Layer1_0_MEMBER_5_FILL">
<path fill="#BCAAA4" stroke="none" d="
M 55.05 3.3
Q 51.5 3.3 42.15 11.4 33.65 18.75 32.3 21.4 31.45 23 29.9 26.85 28.3 30.8 28.05 32 27.8 33.2 26.35 33.3 25.090625 33.396875 24.1 32.75
L 30.05 36.95
Q 37.25 41.6 43.45 43.8 49.65 46 57.45 47.1 61.35 47.6 64 47.7
L 64 6.6
Q 61.95 6.6 59.6 4.95 57.3 3.3 55.05 3.3 Z"/>
</g>

<g id="Layer1_0_MEMBER_6_FILL">
<path fill="#BCAAA4" stroke="none" d="
M 95.65 21.4
Q 94.2 18.75 85.8 11.45 76.45 3.3 72.9 3.3 70.65 3.3 68.35 4.95 66 6.6 64 6.6
L 64 47.7 70.55 47.1
Q 78.3 46 84.5 43.8 90.7 41.6 96.9 37.45 100.05 35.35 101.9 33.7 101.1 34.25 100.8 33.9 100.6 33.65 100.25 32.2 99.9 30.85 98.3 27.05 96.7 23.35 95.65 21.4 Z"/>
</g>

<g id="Layer1_0_MEMBER_7_FILL">
<path fill="#BCAAA4" stroke="none" d="
M 64 26.1
Q 52.25 26.65 41.55 28.15
L 33.15 29.55
Q 32.45 33.95 29.6 34.8
L 26.85 34.8
Q 38.35 43.05 52.35 46.2 59.3 47.8 64 47.7
L 64 26.1 Z"/>
</g>

<g id="Layer1_0_MEMBER_8_FILL">
<path fill="#BCAAA4" stroke="none" d="
M 100.9 34.95
Q 99.65 35.35 98.25 34.85 95.5 33.85 94.8 29.55 91.7 28.95 86.25 28.25 75.45 26.8 64 26.1
L 64 47.7 67.15 47.55
Q 71.2 47.25 75.55 46.3 89.35 43.2 100.9 34.95 Z"/>
</g>

<g id="An_1F920_svg_Layer_1__Path__6_0_Layer0_0_FILL">
<path fill="#A1887F" stroke="none" d="
M 16.25 0.25
Q 12.05 2.05 4.15 10.1 -4.1 18.5 3.4 16.75 11.25 14.95 17.05 10.55 22.1 6.7 21.95 4.2 21.8 2.1 19.85 0.8 17.9 -0.5 16.25 0.25 Z"/>
</g>

<g id="An_1F920_svg_Layer_1__Path__5_0_Layer0_0_FILL">
<path fill="#A1887F" stroke="none" d="
M 17.75 10.1
Q 9.9 2.05 5.7 0.25 4.05 -0.5 2.1 0.8 0.1 2.1 0 4.2 -0.15 6.7 4.9 10.55 10.65 14.95 18.5 16.75 26 18.5 17.75 10.1 Z"/>
</g>

<g id="Layer1_0_MEMBER_11_FILL">
<path fill="#BCAAA4" stroke="none" d="
M 64 47
Q 71.3 47 78.65 44.4 82.35 43.1 84.6 41.8 79.45 43.4 71.5 44.1 55.6 45.5 41.55 40.85
L 48.4 43.95
Q 56.7 47 64 47 Z"/>
</g>

<g id="Layer1_0_MEMBER_12_FILL">
<path fill="#A1887F" stroke="none" d="
M 94.2 35.5
L 97.85 32.35
Q 94.45 31.1 88.6 29.8 76.9 27.25 64.75 27.25 52.6 27.25 40.15 29.8 33.9 31.1 30.1 32.35
L 33.6 35.5 42.85 33.9
Q 54.25 32.3 65.05 32.55 75.8 32.8 86.1 34.2 91.2 34.85 94.2 35.5 Z"/>
</g>

<g id="Layer1_0_MEMBER_13_FILL">
<path fill="#8D6E63" stroke="none" d="
M 67.85 31.1
Q 70.65 30.6 70.65 30.25 70.65 29.75 64.45 28.5 63.65 28.5 61.05 29.1 58.15 29.7 58.15 30.1 58.15 30.55 61 31.05 63.55 31.55 64.45 31.55 65.3 31.55 67.85 31.1 Z"/>
</g>

<g id="Layer1_0_MEMBER_14_FILL">
<path fill="#8D6E63" stroke="none" d="
M 83.6 32.05
Q 86.05 31.85 86.1 31.55 86.15 31.1 80.85 29.45 80.1 29.4 77.8 29.7 75.25 30.05 75.2 30.4 75.15 30.75 77.65 31.45 79.75 32.05 80.6 32.2 81.35 32.25 83.6 32.05 Z"/>
</g>

<g id="Layer1_0_MEMBER_15_FILL">
<path fill="#8D6E63" stroke="none" d="
M 50.3 29.7
Q 48 29.4 47.25 29.45 46.75 29.5 44.5 30.35 42 31.25 42 31.55 42.05 31.85 44.55 32.05 46.75 32.25 47.5 32.2 48.35 32.05 50.45 31.45 52.95 30.75 52.9 30.4 52.85 30.05 50.3 29.7 Z"/>
</g>

<g id="Layer1_0_MEMBER_16_FILL">
<path fill="#BCAAA4" stroke="none" d="
M 55.6 45.3
Q 49.7 44.7 45.2 42.7 42.45 41.5 32.35 33.95 23.1 27.05 18.55 25.9 12.6 24.35 7.8 27 3.25 29.55 1.6 34.65 0.25 38.85 0.7 45.35 1.3 54.3 5.8 60.85 7.05 62.65 7.65 63.35
L 8.2 61.6 7.9 61.2
Q 3.85 56.15 3 48.35 2.35 42.25 3.6 38.25 4.55 35.3 7.5 33.45 11.55 30.85 17.75 31.9 23.05 32.8 30.4 36.55 40.7 41.85 44.8 43.45 52.1 46.3 58.8 47.05 62.15 47.45 64 47.25
L 64 45.65
Q 58.7 45.65 55.6 45.3 Z"/>
</g>

<g id="Layer1_0_MEMBER_17_FILL">
<path fill="#BCAAA4" stroke="none" d="
M 124.3 38.25
Q 125.55 42.2 124.85 48.3 123.95 56 120.05 61.25
L 119.75 61.65 120.25 63.4
Q 120.7 62.85 122.15 60.85 126.7 54.35 127.3 45.35 127.75 38.95 126.4 34.7 124.7 29.55 120.15 27 115.35 24.35 109.4 25.9 104.9 27.05 95.65 33.95 85.55 41.5 82.75 42.7 78.25 44.7 72.35 45.3 69.3 45.65 64 45.65
L 64 47.25 69.25 47
Q 76 46.15 83.3 43.3 87.25 41.75 97.55 36.55 104.7 32.95 110.05 32.05 116.25 31 120.35 33.5 123.45 35.4 124.3 38.25 Z"/>
</g>
</defs>

<g id="Layer_1">
<g transform="matrix( 0.5625, 0, 0, 0.5625, -0.05,1.8) ">
<use xlink:href="#Layer1_0_MEMBER_0_FILL"/>
</g>

<g transform="matrix( 0.5625, 0, 0, 0.5625, 0,1.85) ">
<use xlink:href="#Layer1_0_MEMBER_1_FILL"/>
</g>

<g transform="matrix( 0.5625, 0, 0, 0.5625, 0,1.85) ">
<use xlink:href="#Layer1_0_MEMBER_2_FILL"/>
</g>

<g transform="matrix( 0.5625, 0, 0, 0.5625, 0,1.85) ">
<use xlink:href="#Layer1_0_MEMBER_3_FILL"/>
</g>

<g transform="matrix( 0.9140625, 0, 0, 0.9140167236328125, 3.1,7.95) ">
<use xlink:href="#Layer1_0_MEMBER_4_MEMBER_0_MEMBER_0_MEMBER_0_MEMBER_0_MEMBER_0_FILL"/>
</g>

<g transform="matrix( 0.9140625, 0, 0, 0.9140167236328125, 3.1,7.95) ">
<use xlink:href="#Layer1_0_MEMBER_4_MEMBER_0_MEMBER_1_MEMBER_0_MEMBER_0_MEMBER_0_FILL"/>
</g>

<g transform="matrix( 0.9140625, 0, 0, 0.9140167236328125, 3.1,7.95) ">
<use xlink:href="#Layer1_0_MEMBER_4_MEMBER_0_MEMBER_2_MEMBER_0_MEMBER_0_MEMBER_0_FILL"/>
</g>

<g transform="matrix( 0.9140625, 0, 0, 0.9140167236328125, 3.1,7.95) ">
<use xlink:href="#Layer1_0_MEMBER_4_MEMBER_0_MEMBER_3_MEMBER_0_MEMBER_0_MEMBER_0_FILL"/>
</g>

<g transform="matrix( 0.5625, 0, 0, 0.5625, 0,1.85) ">
<use xlink:href="#Layer1_0_MEMBER_5_FILL"/>
</g>

<g transform="matrix( 0.5625, 0, 0, 0.5625, 0,1.85) ">
<use xlink:href="#Layer1_0_MEMBER_6_FILL"/>
</g>

<g transform="matrix( 0.5625, 0, 0, 0.5625, 0,1.85) ">
<use xlink:href="#Layer1_0_MEMBER_7_FILL"/>
</g>

<g transform="matrix( 0.5625, 0, 0, 0.5625, 0,1.85) ">
<use xlink:href="#Layer1_0_MEMBER_8_FILL"/>
</g>

<g transform="matrix( 0.5625, 0, 0, 0.5625, 20.1,5.75) ">
<g id="Camada_1">
<g transform="matrix( 1, 0, 0, 1, 0,0) ">
<use filter="url(#Filter_1)" xlink:href="#An_1F920_svg_Layer_1__Path__6_0_Layer0_0_FILL"/>
</g>
</g>
</g>

<g transform="matrix( 0.5625, 0, 0, 0.5625, 39.45,5.75) ">
<g transform="matrix( 1, 0, 0, 1, 0,0) ">
<use filter="url(#Filter_1)" xlink:href="#An_1F920_svg_Layer_1__Path__5_0_Layer0_0_FILL"/>
</g>
</g>

<g transform="matrix( 0.5625, 0, 0, 0.5625, 0,1.85) ">
<use xlink:href="#Layer1_0_MEMBER_11_FILL"/>
</g>

<g transform="matrix( 0.5625, 0, 0, 0.5625, 0,1.85) ">
<use xlink:href="#Layer1_0_MEMBER_12_FILL"/>
</g>

<g transform="matrix( 0.5625, 0, 0, 0.5625, 0,1.85) ">
<use xlink:href="#Layer1_0_MEMBER_13_FILL"/>
</g>

<g transform="matrix( 0.5625, 0, 0, 0.5625, 0,1.85) ">
<use xlink:href="#Layer1_0_MEMBER_14_FILL"/>
</g>

<g transform="matrix( 0.5625, 0, 0, 0.5625, 0,1.85) ">
<use xlink:href="#Layer1_0_MEMBER_15_FILL"/>
</g>

<g transform="matrix( 0.5625, 0, 0, 0.5625, 0,1.85) ">
<use xlink:href="#Layer1_0_MEMBER_16_FILL"/>
</g>

<g transform="matrix( 0.5625, 0, 0, 0.5625, 0,1.85) ">
<use xlink:href="#Layer1_0_MEMBER_17_FILL"/>
</g>
</g>
</svg>
